assets/results/genmaicha.svg

<svg width="281" height="157" viewBox="0 0 281 157" fill="none" xmlns="http://www.w3.org/2000/svg">
<g clip-path="url(#clip0_67_31)">
<path d="M94.17 112.59C94.17 114.59 91.26 116.42 86.28 117.96C85.37 118.24 84.4 118.51 83.36 118.77C81.6 119.2 79.65 119.6 77.54 119.97C71.5823 120.959 65.5721 121.6 59.54 121.89C57.6 122.003 55.6 122.083 53.54 122.13H52.81C51.17 122.13 49.51 122.13 47.81 122.13C44.73 122.13 41.73 122.07 38.81 121.95C35.26 121.81 31.81 121.58 28.65 121.27H28.38C25 120.95 21.84 120.54 18.96 120.07C17.18 119.78 15.51 119.46 13.96 119.07C12.41 118.68 10.73 118.29 9.34997 117.87C4.34997 116.32 1.46997 114.48 1.46997 112.49C1.46997 108.94 10.74 105.84 24.55 104.18C32.2834 103.33 40.0602 102.936 47.84 103C55.6087 102.977 63.3721 103.411 71.09 104.3C84.9 105.94 94.17 109 94.17 112.59Z" stroke="#EEEEEE" stroke-width="3" stroke-miterlimit="10"/>
<path d="M94.18 145.81C94.18 151.12 73.43 155.43 47.84 155.43C22.25 155.43 1.5 151.12 1.5 145.81" stroke="#EEEEEE" stroke-width="3" stroke-miterlimit="10"/>
<path d="M1.5 145.81V127.62V125.06V112.59" stroke="#EEEEEE" stroke-width="3" stroke-miterlimit="10"/>
<path d="M94.1699 145.81V127.62V125.06V112.59" stroke="#EEEEEE" stroke-width="3" stroke-miterlimit="10"/>
<path d="M279.43 18.7C279.43 21.84 275.43 24.77 268.31 27.29C253.98 32.43 227.21 35.89 196.56 35.89C165.91 35.89 139.14 32.43 124.79 27.29C117.73 24.77 113.68 21.84 113.68 18.7C113.68 9.2 150.78 1.5 196.56 1.5C242.34 1.5 279.43 9.2 279.43 18.7Z" stroke="#EEEEEE" stroke-width="3" stroke-miterlimit="10"/>
<path d="M268.31 27.29C253.98 32.43 227.21 35.8899 196.56 35.8899C165.91 35.8899 139.14 32.43 124.79 27.29C139.14 22.16 165.9 18.7 196.56 18.7C227.22 18.7 254 22.16 268.31 27.29Z" stroke="#EEEEEE" stroke-width="3" stroke-miterlimit="10"/>
<path d="M279.43 18.7V84.53C279.431 93.8402 277.599 103.06 274.037 111.661C270.475 120.263 265.253 128.079 258.67 134.663C252.087 141.247 244.272 146.47 235.671 150.033C227.069 153.596 217.85 155.43 208.54 155.43H184.54C165.736 155.43 147.702 147.96 134.406 134.664C121.11 121.367 113.64 103.334 113.64 84.53V18.7" stroke="#EEEEEE" stroke-width="3" stroke-miterlimit="10"/>
<path d="M20.59 117.77C20.115 118.589 19.5837 119.374 19 120.12C17.22 119.83 15.55 119.51 14 119.12C14.4307 117.679 15.0352 116.295 15.8 115C17.92 111.32 20.72 109 22.04 109.72C23.36 110.44 22.71 114.09 20.59 117.77Z" fill="#EEEEEE" stroke="#EEEEEE" stroke-width="3" stroke-miterlimit="10"/>
<path d="M83.3599 118.77C81.5999 119.2 79.6499 119.6 77.5399 119.97C76.7402 119.727 75.9555 119.436 75.1899 119.1C71.2999 117.39 68.6499 114.87 69.2599 113.47C69.8699 112.07 73.5299 112.32 77.4199 114.04C80.5699 115.42 82.9199 117.35 83.3599 118.77Z" fill="#EEEEEE" stroke="#EEEEEE" stroke-width="3" stroke-miterlimit="10"/>
<path d="M38.85 122C35.3 121.86 31.85 121.63 28.69 121.32L28.46 121.19C25.84 119.63 24.27 117.8 24.75 116.7C25.23 115.6 27.54 115.52 30.36 116.33C31.2303 116.581 32.0822 116.892 32.91 117.26C36.07 118.67 38.42 120.6 38.85 122Z" fill="#EEEEEE" stroke="#EEEEEE" stroke-width="3" stroke-miterlimit="10"/>
<path d="M59.52 121.89C57.58 122.003 55.58 122.083 53.52 122.13C55.23 118.26 57.74 115.61 59.14 116.23C60.27 116.71 60.35 119 59.52 121.89Z" fill="#EEEEEE" stroke="#EEEEEE" stroke-width="3" stroke-miterlimit="10"/>
<path d="M47.03 96.23L30.36 116.35" stroke="#EEEEEE" stroke-width="3" stroke-miterlimit="10"/>
<path d="M28.4599 121.21L28.4199 121.32" stroke="#EEEEEE" stroke-width="3" stroke-miterlimit="10"/>
<path d="M58.1699 97.78L68.1399 121.02" stroke="#EEEEEE" stroke-width="3" stroke-miterlimit="10"/>
<path d="M48 117.43C47.51 117.56 47 117.68 46.46 117.78C42.28 118.56 38.67 117.98 38.39 116.48C38.15 115.25 40.25 113.78 43.32 112.85C43.99 112.66 44.7 112.48 45.44 112.34C49.62 111.55 53.23 112.13 53.51 113.63C53.76 115 51.39 116.52 48 117.43Z" fill="#EEEEEE" stroke="#EEEEEE" stroke-width="3" stroke-miterlimit="10"/>
<path d="M52.89 122.2L48 117.43" stroke="#EEEEEE" stroke-width="3" stroke-miterlimit="10"/>
<path d="M43.32 112.85L30.99 100.63" stroke="#EEEEEE" stroke-width="3" stroke-miterlimit="10"/>
<path d="M7.78003 117.43L10.09 95.5601" stroke="#EEEEEE" stroke-width="3" stroke-miterlimit="10"/>
<path d="M89.7299 116.7L84.3099 96.6899" stroke="#EEEEEE" stroke-width="3" stroke-miterlimit="10"/>
</g>
<defs>
<clipPath id="clip0_67_31">
<rect width="280.93" height="156.93" fill="white"/>
</clipPath>
</defs>
</svg>

<svg xmlns="http://www.w3.org/2000/svg" viewBox="0 0 280.93 156.93"><defs><style>.cls-1{fill:none;}.cls-1,.cls-2{stroke:#1f1f1f;stroke-miterlimit:10;stroke-width:3px;}.cls-2{fill:#1f1f1f;}</style></defs><g id="Layer_2" data-name="Layer 2"><g id="Layer_1-2" data-name="Layer 1"><path class="cls-1" d="M94.17,112.59c0,2-2.91,3.83-7.89,5.37-.91.28-1.88.55-2.92.81-1.76.43-3.71.83-5.82,1.2a155.66,155.66,0,0,1-18,1.92q-2.91.17-6,.24l-.73,0c-1.64,0-3.3,0-5,0q-4.62,0-9-.18c-3.55-.14-7-.37-10.16-.68l-.27,0c-3.38-.32-6.54-.73-9.42-1.2-1.78-.29-3.45-.61-5-1s-3.23-.78-4.61-1.2c-5-1.55-7.88-3.39-7.88-5.38,0-3.55,9.27-6.65,23.08-8.31A198.34,198.34,0,0,1,47.84,103a198.22,198.22,0,0,1,23.25,1.3C84.9,105.94,94.17,109,94.17,112.59Z"/><path class="cls-1" d="M94.18,145.81c0,5.31-20.75,9.62-46.34,9.62S1.5,151.12,1.5,145.81"/><polyline class="cls-1" points="1.5 145.81 1.5 127.62 1.5 125.06 1.5 112.59"/><polyline class="cls-1" points="94.17 145.81 94.17 127.62 94.17 125.06 94.17 112.59"/><path class="cls-1" d="M279.43,18.7c0,3.14-4,6.07-11.12,8.59-14.33,5.14-41.1,8.6-71.75,8.6s-57.42-3.46-71.77-8.6c-7.06-2.52-11.11-5.45-11.11-8.59,0-9.5,37.1-17.2,82.88-17.2S279.43,9.2,279.43,18.7Z"/><path class="cls-1" d="M268.31,27.29c-14.33,5.14-41.1,8.6-71.75,8.6s-57.42-3.46-71.77-8.6c14.35-5.13,41.11-8.59,71.77-8.59S254,22.16,268.31,27.29Z"/><path class="cls-1" d="M279.43,18.7V84.53a70.89,70.89,0,0,1-70.89,70.9h-24a70.9,70.9,0,0,1-70.9-70.9V18.7"/><path class="cls-2" d="M20.59,117.77A20.48,20.48,0,0,1,19,120.12c-1.78-.29-3.45-.61-5-1A18.55,18.55,0,0,1,15.8,115c2.12-3.68,4.92-6,6.24-5.28S22.71,114.09,20.59,117.77Z"/><path class="cls-2" d="M83.36,118.77c-1.76.43-3.71.83-5.82,1.2a21.22,21.22,0,0,1-2.35-.87c-3.89-1.71-6.54-4.23-5.93-5.63s4.27-1.15,8.16.57C80.57,115.42,82.92,117.35,83.36,118.77Z"/><path class="cls-2" d="M38.85,122c-3.55-.14-7-.37-10.16-.68l-.23-.13c-2.62-1.56-4.19-3.39-3.71-4.49s2.79-1.18,5.61-.37a19.85,19.85,0,0,1,2.55.93C36.07,118.67,38.42,120.6,38.85,122Z"/><path class="cls-2" d="M59.52,121.89q-2.91.17-6,.24c1.71-3.87,4.22-6.52,5.62-5.9C60.27,116.71,60.35,119,59.52,121.89Z"/><line class="cls-1" x1="47.03" y1="96.23" x2="30.36" y2="116.35"/><line class="cls-1" x1="28.46" y1="121.21" x2="28.42" y2="121.32"/><line class="cls-1" x1="58.17" y1="97.78" x2="68.14" y2="121.02"/><path class="cls-2" d="M48,117.43c-.49.13-1,.25-1.54.35-4.18.78-7.79.2-8.07-1.3-.24-1.23,1.86-2.7,4.93-3.63.67-.19,1.38-.37,2.12-.51,4.18-.79,7.79-.21,8.07,1.29C53.76,115,51.39,116.52,48,117.43Z"/><line class="cls-1" x1="52.89" y1="122.2" x2="48" y2="117.43"/><line class="cls-1" x1="43.32" y1="112.85" x2="30.99" y2="100.63"/><line class="cls-1" x1="7.78" y1="117.43" x2="10.09" y2="95.56"/><line class="cls-1" x1="89.73" y1="116.7" x2="84.31" y2="96.69"/></g></g></svg>
